# http://www.gangqinpu.com/html/2974.htm
piano: (tempo 100) o4 g e8 g > c2 | < a4 > c8 < a g2 | g4 c8 d e4 d8 c | d2. r4 |

g4 e8 g > c4. < b8 | a4 > c < g2 | g4 d8 e f4. < b8 | > c2. r4 |

a4 > c c2 | < b4 a8 b > c2 | < a8 b > c < a a g e c | d2. r4 |

g4 e8 g > c4. < b8 | a4 > c < g2 | g4 d8 e8 f4. < b8 | > c2. r4 |

g4 e8 g > c2 | < a4 > c < g2 | g4 c8 d e4 d8 c | d2. r4 |

g4 e8 g > c4. < b8 | a4 > c4 < g2 | g4 d8 e f4. < b8 | > c2. r4 | 

